src/xmb/monochrome/ACT - Apricot PC Xi-content.svg

<svg height="72" viewBox="0 0 72 72" width="72" xmlns="http://www.w3.org/2000/svg" xmlns:xlink="http://www.w3.org/1999/xlink"><clipPath id="a"><path d="m0 64h64v-64h-64z"/></clipPath><g clip-path="url(#a)" fill="#fff" transform="matrix(1.3333333 0 0 -1.3333333 -6.666667 78.666665)"><path d="m0 0h39.432c.681 0 1.232.603 1.232 1.35v25.65h-41.896v-25.65c0-.747.551-1.35 1.232-1.35" transform="translate(12.2839 32)"/><path d="m29 20h-7v-12h7z"/><path d="m30 7h-9v14h9zm14.773 16h-24.546c-.678 0-1.227-.732-1.227-1.636v-16.364h27v16.364c0 .904-.549 1.636-1.227 1.636"/><path d="m58 52h-3v2h3zm-.227 7h-3.825v-25.65c0-1.296-1.001-2.35-2.232-2.35h-39.432c-1.231 0-2.232 1.054-2.232 2.35v25.65h-3.825c-.678 0-1.227-.549-1.227-1.227v-46.773l5-6h8v16.364c0 1.478.978 2.636 2.227 2.636h24.773c1.249 0 2-1.158 2-2.636v-16.364h10.773c.678 0 1.227.549 1.227 1.227v51.546c0 .678-.549 1.227-1.227 1.227"/></g></svg>

<svg xmlns="http://www.w3.org/2000/svg" width="72" height="72"><clipPath id="a"><path d="M0 64h64V0H0z"/></clipPath><g fill="#fff" clip-path="url(#a)" transform="matrix(1.33333 0 0 -1.33333 -6.667 78.667)"><path d="M12.284 32h39.432c.68 0 1.232.603 1.232 1.35V59H11.052V33.35c0-.747.55-1.35 1.232-1.35M29 20h-7V8h7z"/><path d="M30 7h-9v14h9zm14.773 16H20.227C19.549 23 19 22.268 19 21.364V5h27v16.364c0 .904-.549 1.636-1.227 1.636"/><path d="M58 52h-3v2h3zm-.227 7h-3.825V33.35c0-1.296-1.001-2.35-2.232-2.35H12.284c-1.231 0-2.232 1.054-2.232 2.35V59H6.227A1.227 1.227 0 0 1 5 57.773V11l5-6h8v16.364c0 1.478.978 2.636 2.227 2.636H45c1.249 0 2-1.158 2-2.636V5h10.773C58.451 5 59 5.549 59 6.227v51.546c0 .678-.549 1.227-1.227 1.227"/></g></svg>
